svgs/solid/suitcase-rolling.svg

<svg xmlns="http://www.w3.org/2000/svg" viewBox="0 0 384 512"><!--! Font Awesome Free 6.7.2 by @fontawesome - https://fontawesome.com License - https://fontawesome.com/license/free (Icons: CC BY 4.0, Fonts: SIL OFL 1.1, Code: MIT License) Copyright 2024 Fonticons, Inc. --><path d="M144 56c0-4.4 3.6-8 8-8l80 0c4.4 0 8 3.6 8 8l0 72-96 0 0-72zm176 72l-32 0 0-72c0-30.9-25.1-56-56-56L152 0C121.1 0 96 25.1 96 56l0 72-32 0c-35.3 0-64 28.7-64 64L0 416c0 35.3 28.7 64 64 64c0 17.7 14.3 32 32 32s32-14.3 32-32l128 0c0 17.7 14.3 32 32 32s32-14.3 32-32c35.3 0 64-28.7 64-64l0-224c0-35.3-28.7-64-64-64zM112 224l160 0c8.8 0 16 7.2 16 16s-7.2 16-16 16l-160 0c-8.8 0-16-7.2-16-16s7.2-16 16-16zm0 128l160 0c8.8 0 16 7.2 16 16s-7.2 16-16 16l-160 0c-8.8 0-16-7.2-16-16s7.2-16 16-16z"/></svg>

<svg xmlns="http://www.w3.org/2000/svg" viewBox="0 0 384 512"><!--! Font Awesome Free 6.5.1 by @fontawesome - https://fontawesome.com License - https://fontawesome.com/license/free (Icons: CC BY 4.0, Fonts: SIL OFL 1.1, Code: MIT License) Copyright 2023 Fonticons, Inc. --><path d="M144 56c0-4.4 3.6-8 8-8h80c4.4 0 8 3.6 8 8v72H144V56zm176 72H288V56c0-30.9-25.1-56-56-56H152C121.1 0 96 25.1 96 56v72H64c-35.3 0-64 28.7-64 64V416c0 35.3 28.7 64 64 64c0 17.7 14.3 32 32 32s32-14.3 32-32H256c0 17.7 14.3 32 32 32s32-14.3 32-32c35.3 0 64-28.7 64-64V192c0-35.3-28.7-64-64-64zM112 224H272c8.8 0 16 7.2 16 16s-7.2 16-16 16H112c-8.8 0-16-7.2-16-16s7.2-16 16-16zm0 128H272c8.8 0 16 7.2 16 16s-7.2 16-16 16H112c-8.8 0-16-7.2-16-16s7.2-16 16-16z"/></svg>
